X:1
T:Taylor (Proctor), CM
T:Taylor (Proctor), CM
T:H. I. Proctor, 1879
T:Public Domain Courtesy of the Cyber Hymnal™
C:H. I. Proctor, 1879
Z:Public Domain
Z:Courtesy of the Cyber Hymnal™
%%score ( 1 2 ) ( 3 4 )
L:1/8
Q:1/4=97
M:2/4
K:Db
V:1 treble 
V:2 treble 
V:3 bass 
V:4 bass 
V:1
 [FA]2 [=EB][FA] | [EG]2 [EG]2 | [DF]2 [DE]2 | [CE]3 [CE] [DF]2 [=B,F]2 | (F z) z =G x2 | F3 z | %6
 [CG]2 [CF][CE] | (DA) ([CG][DF]) | [DE]2 [DF]2 | [EG]2 [EA]2 | (Ad) z G | [DA]2 (E>F) | D3 z |] %13
 x4 |] %14
V:2
 x4 | x4 | x4 | x8 | C2 A2 =E2 | F3 x | x4 | D2 x2 | x4 | x4 | D2 D2 | x2 C2 | D3 x |] x4 |] %14
V:3
 (DA,) [D,=G,][D,A,] | [D,B,]2 [D,C]2 | (DA,) [B,,=G,]2 | [A,,A,]3 [A,,A,] x4 | %4
 [D,A,]2 [D,A,]2 x2 | [C,A,]2 [C,B,]2 | [F,A,]3 z | [E,A,]2 [C,A,][G,A,] | [F,A,]2 A,2 | %9
 [G,B,]2 [F,B,]2 | B,2 (A,G,) | [G,B,]2 [F,B,]2 | (E,F,) (G,A,) |] [D,F,]3 z |] %14
V:4
 D,2 x2 | x4 | D,2 x2 | x8 | x6 | x4 | x4 | x4 | x2 (E,D,) | x4 | (E,D,) C,2 | x4 | A,,2 A,,2 |] %13
 x4 |] %14

